X:15404
T:Si vas a la romería (MG 64)
C:Tradicional
S:Música Tradicional Asturiana, (C) Tello & Tito. Asturies, 2001.
S:http://pagina.de/MusTradAst <telloytito@asturies.org>
A:Asturies
Z:Métodu de Gaita 64
E:Comp.
M:3/8
L:1/8
Q:3/8=80
K:C
G|: ccc|c2 ~d|BGA|B2 c|~AFG|A2 B|G3-|[1 G2 G :|[2 G C/D/E/F/|
|GEG|~AFA|~G>FE-|E C/D/E/F/|
|GEG|FDF|E3-|E C/D/E/F/|
|GEG|AFA|G>FE-|E C/D/E/F/|
|GEG|F~DB,|C3-|C2 G|
|: ccc|c2 ~d|BGA|B2 c|AFG|A B2|G3-|[1 G2 G :|[2 G C/D/E/F/|
|GEG|~AFA|G>FE-|E C/D/E/F/|
|GEG|FDF|E3-|E C/D/E/F/|
|GEG|~AFA|~G>FE-|E C/D/E/F/|
|~GEG|FDF|~ECE|~DB,D|
|C3-|CB,~C|C3-|CB,~C|C3-|
|C C/D/E/F/|~GEG|~AFA|c3-|c2 ~G|


